X: 35829
T: Salton De San Martin
R: reel
M: 4/4
K: Dmajor
a2 fa bc'ba|fede fedB|a2 fa bc'ba|fdef d3 f|
a2 fa bc'ba|fede fedB|a2 fa bc'ba|fdef d3 e|
f2 ed a2 gf|edef d3 e|f2 ed a2 gf|edef B2 BA|
Bcde fdaf|edef d3 e|f2 ed a2 gf|edef d3 z|

